X:158
T:Steirer
C:traditionell
R:Steirer
A:Bad Ischl, Salzkammergut
B:"Pfeifermusik aus Bad Ischl", Lois Blamberger, 3. Auflage, Bad Ischl 1990
S:im buch mit der Angabe: aus der Sammlung vom Blamberger Lois
N:im buch in D, nr. 5/1
Z:abc transcription Simon Wascher
M:3/4
L:1/8
K:D
V:1
(3ABc |\
(da)(adfd) | (ca)(ac) g2 | (ca)(acgc) | (da)(ad) f2 |\
(da)(adfd) | (ca)(ac) g2 | (ca)(acgc) | d4 :|
V:2
(3FGA |\
(Af)(fA dB) | (Ag)(gA) c2 | (Ag)(gA cA) | (Af)(fA) d2 |\
(Af)(fA dB) | (Ag)(gA) c2 | (Ag)(gA cA) | F4 :|
